.local/share/icons/Gruvbox-Plus-Dark/actions/16/path-clip-edit.svg

<svg xmlns="http://www.w3.org/2000/svg" width="16" height="16" viewBox="0 0 16 16">
 <defs>
  <style id="current-color-scheme" type="text/css">
   .ColorScheme-Text { color:#ebdbb2; } .ColorScheme-Highlight { color:#458588; }
  </style>
 </defs>
 <path style="fill:currentColor" class="ColorScheme-Text" d="M 14.501953 0.94726562 C 13.674753 0.94726562 13.003906 1.6188356 13.003906 2.4472656 C 13.003906 3.2756956 13.674723 3.9472656 14.501953 3.9472656 C 15.329153 3.9472656 16 3.2756956 16 2.4472656 C 16 1.6188356 15.329183 0.94726562 14.501953 0.94726562 z M 7.6914062 5.3867188 C 7.4179062 5.5846187 7.1539375 5.7931719 6.8984375 6.0136719 C 8.3687375 7.4246719 9.8583688 8.3031531 11.292969 8.5644531 C 12.804969 8.8397531 14.252516 8.4038813 15.353516 7.3007812 L 14.648438 6.59375 C 13.753438 7.49065 12.706656 7.8047781 11.472656 7.5800781 C 10.331656 7.3723781 9.0261062 6.6388188 7.6914062 5.3867188 z M 6.3652344 6.4941406 C 6.1297144 6.7247906 5.9090594 6.9699863 5.6933594 7.2226562 C 7.0931594 8.6484562 7.9772656 10.147475 8.1972656 11.359375 C 8.4216556 12.595375 8.1083836 13.644216 7.2128906 14.541016 L 7.9179688 15.248047 C 9.0194687 14.145047 9.4544875 12.693688 9.1796875 11.179688 C 8.9092875 9.6905875 7.8707344 8.0225406 6.3652344 6.4941406 z M 2.5195312 12.947266 C 1.6923313 12.947266 1.0214844 13.618836 1.0214844 14.447266 C 1.0214844 15.275696 1.6923013 15.947266 2.5195312 15.947266 C 3.3467312 15.947266 4.0175781 15.275696 4.0175781 14.447266 C 4.0175781 13.618836 3.3467612 12.947266 2.5195312 12.947266 z"/>
 <path style="fill:currentColor;opacity:0.3" class="ColorScheme-Text" d="M 13.070312 2.0292969 C 7.7432125 3.1298969 3.0329375 6.6870781 2.0859375 13.017578 C 2.2243875 12.975278 2.3672613 12.945312 2.5195312 12.945312 C 2.7213312 12.945312 2.9141538 12.986134 3.0898438 13.058594 C 3.5186138 10.326694 4.6776875 8.1776937 6.3046875 6.5585938 C 6.3257565 6.5374738 6.3439664 6.5130775 6.3652344 6.4921875 C 6.3652344 6.4921875 6.3671875 6.4941406 6.3671875 6.4941406 C 8.1795875 4.7200406 10.552953 3.5938156 13.126953 3.0410156 C 13.048953 2.8587156 13.003906 2.6584656 13.003906 2.4472656 C 13.003906 2.3012856 13.031473 2.1627169 13.070312 2.0292969 z"/>
</svg>

<svg width="16" height="16" version="1.1" xmlns="http://www.w3.org/2000/svg">
  <defs>
    <style id="current-color-scheme" type="text/css">.ColorScheme-Text { color:#ebdbb2; } .ColorScheme-Highlight { color:#458588; }</style>
  </defs>
  <path class="ColorScheme-Text" d="m13.5 1c-0.8272 0-1.498 0.6716-1.498 1.5s0.6708 1.5 1.498 1.5 1.498-0.6716 1.498-1.5-0.6708-1.5-1.498-1.5zm-5.813 4.386c-0.2735 0.1979-0.5375 0.4065-0.793 0.627 1.47 1.411 2.96 2.289 4.395 2.551 1.512 0.2753 2.96-0.1606 4.061-1.264l-0.7051-0.707c-0.895 0.8969-1.942 1.211-3.176 0.9863-1.141-0.2077-2.447-0.9413-3.781-2.193zm-1.326 1.107c-0.2355 0.2306-0.4562 0.4758-0.6719 0.7285 1.4 1.426 2.284 2.925 2.504 4.137 0.2244 1.236-0.08888 2.285-0.9844 3.182l0.7051 0.707c1.101-1.103 1.537-2.554 1.262-4.068-0.2704-1.489-1.309-3.157-2.814-4.686zm-3.865 5.507c-0.8272 0-1.498 0.6716-1.498 1.5s0.6708 1.5 1.498 1.5 1.498-0.6716 1.498-1.5-0.6708-1.5-1.498-1.5z" fill="currentColor"/>
  <path class="ColorScheme-Text" d="m13.07 2.029c-5.327 1.101-10.04 4.658-10.98 10.99 0.1384-0.0423 0.2813-0.07227 0.4336-0.07227 0.2018 0 0.3946 0.04082 0.5703 0.1133 0.4288-2.732 1.588-4.881 3.215-6.5 0.02107-0.02112 0.03928-0.04552 0.06055-0.06641l0.001953 0.001953c1.812-1.774 4.186-2.9 6.76-3.453-0.078-0.1823-0.123-0.3826-0.123-0.5938 0-0.146 0.02757-0.2845 0.06641-0.418z" fill="currentColor" opacity=".3"/>
</svg>
